packages/core/src/svgs/btcp.svg

<svg width="24" height="24" viewBox="0 0 24 24" fill="none" xmlns="http://www.w3.org/2000/svg">
<g clip-path="url(#clip0_31_7544)">
<path d="M0 0H24V24H0V0Z" fill="#272D63"/>
<path d="M12.2515 4.35254L11.6969 6.42254L8.79937 5.64597L8.35537 7.30154L9.59737 7.63454C9.65174 7.64911 9.70271 7.67425 9.74736 7.70852C9.79202 7.74279 9.82948 7.78552 9.85762 7.83427C9.88576 7.88303 9.90401 7.93685 9.91135 7.99265C9.91868 8.04846 9.91495 8.10517 9.90037 8.15954L8.34766 13.9551C8.33309 14.0095 8.30795 14.0604 8.27368 14.1051C8.2394 14.1498 8.19667 14.1872 8.14792 14.2154C8.09917 14.2435 8.04535 14.2618 7.98954 14.2691C7.93373 14.2764 7.87702 14.2727 7.82266 14.2581L6.99466 14.0361L6.13708 15.5811L9.03466 16.3577L8.48009 18.4277L9.72208 18.7603L11.4968 12.1367L12.9454 12.525C14.5727 12.9608 17.1522 12.5575 17.6549 10.6808C18.0625 9.1594 16.2505 7.64225 15.0085 7.30968L15.5635 5.23968L14.3215 4.90711L13.7669 6.97711L12.9389 6.75511L13.4935 4.68511L12.2515 4.35254ZM12.4954 8.41111L14.1745 8.86111C14.3395 8.90303 14.4946 8.9773 14.6307 9.07962C14.7667 9.18194 14.8812 9.31027 14.9672 9.45716C15.0533 9.60406 15.1094 9.76658 15.1321 9.93531C15.1549 10.104 15.1439 10.2756 15.0999 10.4401C15.0558 10.6045 14.9795 10.7586 14.8754 10.8933C14.7713 11.028 14.6415 11.1408 14.4935 11.2249C14.3455 11.3091 14.1822 11.363 14.0132 11.3836C13.8442 11.4041 13.6728 11.3909 13.5089 11.3447L11.8298 10.8947L12.4954 8.41111Z" fill="white"/>
<path d="M13.0209 15.6509C13.3301 15.7337 13.6576 15.7155 13.9557 15.5989C14.2538 15.4822 14.5067 15.2733 14.6776 15.0026C14.8484 14.7319 14.9282 14.4137 14.9053 14.0944C14.8823 13.7752 14.7578 13.4716 14.55 13.2282C15.5675 13.2273 15.8863 13.1035 16.4632 12.8789L16.6449 12.8086C17.2556 13.5389 17.5166 14.51 17.2629 15.4563C16.8515 16.9919 14.8213 17.7946 13.1765 17.4603L13.1747 17.4667L12.3467 17.2447L11.7922 19.3147L10.5502 18.9817L11.5487 15.2562L13.0209 15.6509Z" fill="white"/>
</g>
<defs>
<clipPath id="clip0_31_7544">
<rect width="24" height="24" fill="white"/>
</clipPath>
</defs>
</svg>

<svg xmlns="http://www.w3.org/2000/svg" width="24" height="24" fill="none" viewBox="0 0 24 24"><g clip-path="url(#a)"><path fill="#272D63" d="M0 0h24v24H0z"/><path fill="#fff" d="m12.252 4.353-.555 2.07-2.898-.777-.444 1.656 1.242.333a.43.43 0 0 1 .303.525l-1.552 5.795a.43.43 0 0 1-.525.303l-.828-.222-.858 1.545 2.898.777-.555 2.07 1.242.332 1.775-6.623 1.448.388c1.628.436 4.207.032 4.71-1.844.407-1.522-1.405-3.039-2.647-3.371l.556-2.07-1.242-.333-.555 2.07-.828-.222.554-2.07zm.243 4.058 1.68.45a1.286 1.286 0 1 1-.666 2.484l-1.68-.45z"/><path fill="#fff" d="M13.02 15.65a1.5 1.5 0 0 0 1.53-2.422c1.018 0 1.336-.124 1.913-.35l.182-.07c.61.73.872 1.702.618 2.648-.412 1.536-2.442 2.339-4.087 2.004l-.001.007-.828-.222-.555 2.07-1.242-.333.999-3.726z"/></g><defs><clipPath id="a"><path fill="#fff" d="M0 0h24v24H0z"/></clipPath></defs></svg>
